X:630
T:Miss Forbes' Farewell to Banff
R:Country Dance
B:The Athole Collection
M:C|
L:1/8
K:G
BA|B3d cBAG|B2d2 efge|d3e dBAG|B2A2A2GA|B2d2 cBAG|
B2d2 efge|d3e dBAG|B2G2G2:|
|:d|g3a gfed|edef g3b|d3e dBAG|B2A2A2d2|gfga gfed|edef g2fe|
d3e dBAG|B2G2G2:|

